images/footer/footer-basket.svg

<svg width="18" height="18" viewBox="0 0 18 18" fill="none" xmlns="http://www.w3.org/2000/svg">
<path fill-rule="evenodd" clip-rule="evenodd" d="M3.65104 1.80229C3.49177 1.80194 3.33823 1.82003 3.19234 1.85443C2.99234 1.41204 2.72816 1.01515 2.42769 0.713604C1.91772 0.201799 1.11341 0 0 0V1.8C0.680165 1.8 1.07157 1.8982 1.15945 1.9864C1.49841 2.32657 1.79357 3.01776 1.79357 3.6L1.80258 3.72728L2.68132 9.90046C1.21098 9.97702 0.0719201 11.1229 0.00110177 12.5554L0 13.5C0.0868279 14.9795 1.2221 16.1177 2.63945 16.1985L2.84304 16.1989C3.21205 17.2481 4.20889 18 5.38071 18C6.55211 18 7.54865 17.2487 7.91798 16.2H10.0177C10.3871 17.2487 11.3836 18 12.555 18C14.0408 18 15.2454 16.7912 15.2454 15.3C15.2454 13.8088 14.0408 12.6 12.555 12.6C11.3836 12.6 10.3871 13.3513 10.0177 14.4H7.91798C7.54865 13.3513 6.55211 12.6 5.38071 12.6C4.20932 12.6 3.21277 13.3513 2.84344 14.4H2.69036C2.233 14.3725 1.82275 13.9612 1.79196 13.4461L1.79357 12.6C1.81775 12.1332 2.2252 11.7243 2.7348 11.6989L4.50517 11.6993L4.51801 11.7H13.5566L13.6889 11.6578C14.3689 11.4413 14.9132 10.9275 15.1709 10.2623L15.2654 10.0746L15.5724 9.46429C15.8899 8.83253 16.2075 8.19968 16.517 7.58142C17.275 6.06697 17.7517 5.1045 17.8573 4.86815C18.3994 3.65441 17.3012 2.72022 16.1786 2.70032L3.65104 1.80229ZM13.245 9.9H4.58515C4.52757 9.88393 4.48369 9.83498 4.4751 9.77401L3.59634 3.60066L16.0465 4.49543C15.8287 4.94129 15.4327 5.73764 14.9142 6.77348L14.9012 6.79944C14.6053 7.39067 14.2882 8.02265 13.971 8.65357L13.6645 9.26311L13.5482 9.49395L13.5045 9.596C13.4577 9.72698 13.3646 9.83462 13.245 9.9ZM12.555 16.2C13.0503 16.2 13.4518 15.7971 13.4518 15.3C13.4518 14.8029 13.0503 14.4 12.555 14.4C12.0597 14.4 11.6582 14.8029 11.6582 15.3C11.6582 15.7971 12.0597 16.2 12.555 16.2ZM6.2775 15.3C6.2775 15.7971 5.876 16.2 5.38072 16.2C4.88544 16.2 4.48393 15.7971 4.48393 15.3C4.48393 14.8029 4.88544 14.4 5.38072 14.4C5.876 14.4 6.2775 14.8029 6.2775 15.3Z" fill="white"/>
</svg>

<svg width="18" height="18" fill="none" xmlns="http://www.w3.org/2000/svg"><path fill-rule="evenodd" clip-rule="evenodd" d="M3.651 1.8023a1.9776 1.9776 0 0 0-.4587.0521c-.2-.4424-.4641-.8393-.7646-1.1408C1.9177.2018 1.1134 0 0 0v1.8c.6802 0 1.0716.0982 1.1595.1864.339.3402.634 1.0314.634 1.6136l.009.1273.8788 6.1732C1.211 9.977.072 11.1229.0011 12.5554L0 13.5c.0868 1.4795 1.2221 2.6177 2.6395 2.6985l.2035.0004C3.212 17.2481 4.209 18 5.3807 18c1.1714 0 2.168-.7513 2.5373-1.8h2.0997c.3694 1.0487 1.3659 1.8 2.5373 1.8 1.4858 0 2.6904-1.2088 2.6904-2.7s-1.2046-2.7-2.6904-2.7c-1.1714 0-2.1679.7513-2.5373 1.8H7.918c-.3693-1.0487-1.3659-1.8-2.5373-1.8-1.1714 0-2.168.7513-2.5373 1.8h-.153c-.4574-.0275-.8676-.4388-.8984-.9539l.0016-.8461c.0241-.4668.4316-.8757.9412-.9011l1.7704.0004.0128.0007h9.0386l.1323-.0422a2.3572 2.3572 0 0 0 1.482-1.3955l.0945-.1877.307-.6103c.3175-.6318.6351-1.2646.9446-1.8829.758-1.5144 1.2347-2.4769 1.3403-2.7133.5421-1.2137-.5561-2.1479-1.6787-2.1678L3.651 1.8023ZM13.245 9.9H4.5852a.1529.1529 0 0 1-.1101-.126l-.8788-6.1733 12.4502.8947c-.2178.4459-.6138 1.2422-1.1323 2.278l-.013.026c-.2959.5913-.613 1.2233-.9302 1.8542l-.3065.6095-.1163.2309-.0437.102a.562.562 0 0 1-.2595.304Zm-.69 6.3c.4953 0 .8968-.4029.8968-.9 0-.4971-.4015-.9-.8968-.9s-.8968.4029-.8968.9c0 .4971.4015.9.8968.9Zm-6.2775-.9c0 .4971-.4015.9-.8968.9s-.8968-.4029-.8968-.9c0-.4971.4015-.9.8968-.9s.8968.4029.8968.9Z" fill="#fff"/></svg>
